!!!!SEGMENT: pl-wumfc--n53446--001-004_moniuszko-stanislaw--hrabina-no-3-duet-polonez.krn
!!!cenid: 18xx:4091
!!!COM: Moniuszko, Stanisław
!!!COM-rismID: pe30008351
!!!CDT: 1819/05/05-1872/06/04
!!!CNT: Polish
!!!OPR: Hrabina
!!!OTL: No. 3. Duet – Polonez
!!!OMV: 004
!!!PDT:
!!!AGN:
!!!SMS-siglum: PL-Wumfc
!!!SMS-shelfmark: N53446
!!!SMS-variant:
!!!SMS-altvar:
!!!SMS-shelfwork: 001-004 M
!!!NIFC-rismSourceID: 1001165649
!!!NIFC-rismChildID: 1001165649
!!!NIFC-islandoraID: pl-wumfc:6884
!!!URL-pdf-islandora: https://repozytorium.nifc.pl/islandora/object/pl-wumfc%3A6884/datastream/PDF/view
!!!URL-scan: https://polish.musicsources.pl/pl/lokalizacje/galeria/druki-muzyczne/12579-hrabina @EN{Scan on Polish Music Sources Website} @PL{Skany w portalu Dziedzictwo Muzyki Polskiej w otwartym dostępie}
!!!ONB-nifc:
!!!AIN: 1 piano
!!!key: B-
**kern	**kern	**text	**dynam
*part1	*part1	*part1	*part1
*staff2	*staff1	*staff1	*
*I"[Piano.]	*I"[Piano.]	*	*
*Ipiano	*Ipiano	*	*
*ICklav	*ICklav	*	*
*clefF4	*clefG2	*	*
*k[b-e-]	*k[b-e-]	*	*
*B-:	*B-:	*	*
*M4/4	*M4/4	*	*
*met(c)	*met(c)	*	*
=1	=1	=1	=1
!!LO:TX:B:a:t=Non troppo lento.
!	!LO:TX:t=P:problem:cały tekst zapisany ponad pięciolinią	!	!
4r	4r	.	.
8B- 8BB-\	8dd 8b- 8f 8d/	.	ff
8r	8r	.	.
8F 8FF/	8ff 8dd 8b- 8f\	.	.
8r	8r	.	.
8D 8DD/	8bb- 8ff 8dd 8b-\	.	.
8r	8r	.	.
=2	=2	=2	=2
8BB- 8BBB-/	8ddd 8bb- 8ff 8dd\	.	.
8r	8r	.	.
8.d\L	8.dd\L	Pod: Nep-	p
16B-\Jk	16b-\Jk	-tun,	.
8.B-\L	8.b-/L	kos-	.
16F\Jk	16f/Jk	-tium	.
8.F\L	8.f/L	i	.
16D\Jk	16d/Jk	trykoty.	.
=3	=3	=3	=3
*	*^	*	*
2BB-/	2r	2ryy	.	.
2A-X 2D\	4r	[2f\	.	.
.	8.b-/L	.	Ch: Co-	.
.	16b-/Jk	.	-za	.
!!LO:LB:g=original
=4	=4	=4	=4	=4
*^	*	*	*	*
2G/	1E-	2.b-/	4f\]	Neptun?	.
.	.	.	8e-\L	.	.
.	.	.	8d\J	.	.
2G-X/	.	.	[2e- 2B-\	.	.
.	.	8.b-/L	.	Bo	.
.	.	16b-/Jk	.	że	.
=5	=5	=5	=5	=5	=5
2F/	1BB-	2.b-/	(>8e-\L]	zło-	.
.	.	.	8d\	.	.
.	.	.	8B-\	.	.
.	.	.	8c\J	.	.
2B-/	.	.	4d\	.	.
.	.	8.g/L	4d-X\)	-ty!	.
.	.	16a/Jk	.	więc	.
=6	=6	=6	=6	=6	=6
(4En/	1C	4.cc/	(4c\	i	.
4F/	.	.	4dn\	.	.
.	.	8b-/	.	wasz-	.
4F#X/	.	4.a/	4d#X\	-mość	.
4G/	.	.	4en\	.	.
.	.	8g/	.	też	.
=7	=7	=7	=7	=7	=7
4A/)	(2F\	(4f/	2f\)	w ma-	.
8B-/L	.	8g/L	.	-szka-	.
8Bn/J	.	8g#X/J	.	.	.
8c/	8E-X\)	8a/)	8f\	-ry?	.
8r	8ryy	8r	8ryy	.	.
[4B-X (<4D\	4ryy	8.b-/L	(4f\	czy	.
.	.	16b-/Jk	.	na	.
*v	*v	*	*	*	*
*	*v	*v	*	*
!!LO:LB:g=original
=8	=8	=8	=8
4B-] 4E-\)	4g/)	sta-	.
4r	4e-/	-rość	.
4A 4F\	4c/	waść	.
4r	4f/	się	.
=9||	=9||	=9||	=9||
*M3/4	*M3/4	*	*
!	!LO:TX:B:a:t=Alla polacca.	!	!
8BB-/	8b-L 8B-'/	ko-	.
16dLL 16F\	[8b-^/J	-cha?	.
16dJJ 16F\	.	.	.
8B-L 8D\	16.b-/LL]	.	.
.	32f/K	.	.
8B- 8F\	16.d/	.	.
.	32f/JJk	.	.
8B- 8D\	16b-/LL	.	.
.	16a/	.	.
8dJ 8F\	16b-/	.	.
.	16dd/JJ	.	.
=10	=10	=10	=10
8BB-/	16ff\LL	.	.
.	16dd\	.	.
16dLL 16F\	16b-\	.	.
16dJJ 16F\	16bb-\JJ	.	.
8B-L 8D\	[4ff\	Pod: Mój	.
8d 8F\	.	.	.
8B- 8D\	16ff\LL]	.	.
.	32r	.	.
.	32een\K	.	.
8dJ 8B-\	16ff\	.	.
.	32r	.	.
.	32ff#X\JJk	Cho-	.
!!LO:LB:g=original
=11	=11	=11	=11
8EE-\L	8gg'\L	-rą-	.
16cL 16G 16E-\	[8gg^\J	-ży!	.
16cJJ 16G 16E-\	.	.	.
8cL 8G 8E-\	16.gg\LL]	.	.
.	32ffn\K	.	.
8cJ 8G 8E-\	16.ee-\	.	.
.	32dd\JJk	.	.
8cL 8G 8E-\	16.ee-\LL	.	.
.	32dd\K	.	.
8cJ 8G 8E-\	16.cc\	tro-	.
.	32b-\JJk	-cha,	.
=12	=12	=12	=12
*^	*	*	*
8F\L	2ryy	16a/LL	tro-	.
.	.	16b-/	.	.
8cJ 8A\	.	16cc/	-cha.	.
.	.	16a/JJ	.	.
8F\L	.	8f/L	.	.
8F\J	.	16r	.	.
.	.	16f/Jk	.	.
4e-/	16B-\LL	16g/LL	.	.
.	16A\	16a/	.	.
.	16G\	16b-/	.	.
.	16F\JJ	16cc/JJ	.	.
=13	=13	=13	=13	=13
8B- 8BB-\	4ryy	8dd\L	.	.
16F\LL	.	[8dd^\J	Lecz	.
16F\JJ	.	.	.	.
4d/	8B-\L	16dd\LL]	.	.
.	.	16ff\	coż	.
.	8F'>\J	16ee-\	.	.
.	.	16dd\JJ	.	.
4e-/	8A\L	16cc\LL	zno-	.
.	.	16ee-\	-wu	.
.	8F'>\J	16dd\	.	.
.	.	16cc\JJ	.	.
*v	*v	*	*	*
!!LO:LB:g=original
=14	=14	=14	=14
*	*^	*	*
8dL 8B-\	16b-\LL	2ryy	tam	.
.	16cc\	.	.	.
8F\	16dd\	.	wasz-	.
.	16b-\JJ	.	-mo-	.
8dJ 8B-\	8f/L	.	-ści	.
8D\L	16rc	.	.	.
.	16f/Jk	.	.	.
8C\	16g/LL	4e-\	.	.
.	16a/	.	.	.
8F\J	16b-/	.	.	.
.	16cc/JJ	.	.	.
*	*v	*v	*	*
=15	=15	=15	=15
*^	*	*	*
8B- 8BB-\	4ryy	8ddL 8d'\	.	.
16F\LL	.	[8dd^\J	na	.
16F\JJ	.	.	.	.
4d/	8B-\L	16dd\LL]	.	.
.	.	16bb-\	.	.
.	8F\J	16ee-\	po-	.
.	.	16dd\JJ	.	.
.	.	8qdd/	.	.
4e-/	8A\L	16cc\LL	-my-	.
.	.	16b-\	.	.
.	8F\J	16cc\	-kać	.
.	.	16dd\JJ	.	.
*v	*v	*	*	*
=16	=16	=16	=16
8BB-/	16.b-\LL	o	.
.	32cc\K	.	.
16dLL 16B-\	16.dd\	sta-	.
16dJJ 16B-\	.	.	.
.	32b-\JJk	-ro-	.
8d'\	8f'/	-ści	.
!	!LO:TX:i:b:t=leggier.	!	!
!	!LO:N:vis=16	!	!
8B-L 8D\	(32g/LLL	.	.
!	!LO:N:vis=16	!	!
.	32f/	.	.
!	!LO:N:vis=16	!	!
.	32en/	.	.
!	!LO:N:vis=16	!	!
.	32f/JJJ)	.	.
8G' 8C\	8gL 8e'/	.	.
8F\J	8aJ 8e-X'/	.	.
!!LO:PB:g=original
=17	=17	=17	=17
.	8qd/	.	.
8BB-\L	16.b-\LL	lat	.
.	32cc\K	.	.
16dL 16B-\	16.dd\	pięć-	.
16dJJ 16B-\	.	.	.
.	32b-\JJk	.	.
8d 8B-\	8f/	-dzie-	.
!	!LO:N:vis=16	!	!
8B-L 8D'\	32g/LLL	.	.
!	!LO:N:vis=16	!	!
.	32f/	.	.
!	!LO:N:vis=16	!	!
.	32en/	.	.
!	!LO:N:vis=16	!	!
.	32f/JJJ	.	.
8G 8C'\	8gL 8e'/	.	.
8F'\J	8aJ 8e-X'/	-siąt	.
=18	=18	=18	=18
16BB-/	16b- 16d/	człek	.
32r	32r	.	.
32f\KLL	32ff\KLL	.	.
16d\	16dd\	nie	.
32r	32r	.	.
32B-\JJk	32b-\JJk	.	.
16F\LL	16f/LL	.	.
32r	32r	.	.
32BB-\K	32B-/K	sta-	.
16C\	16c/	-ry.	.
32r	32r	.	.
32D\JJk	32d/JJk	.	.
16E-\LL	16e-/LL	.	.
32r	32r	.	.
32F\K	32f/K	.	.
16G\	16g/	.	.
32r	32r	.	.
32A\JJk	32a/JJk	.	.
!!LO:LB:g=original
=19	=19	=19	=19
!	!	!	!LO:HP:b=2
16B-T\LL	(>16b-T/LL	.	<
16A\	16a/	.	.
16B-\	16b-/	.	.
16c\JJ	16cc/JJ	.	.
16d>\LL	16dd/LL	.	.
16e->\	16ee-/	.	.
16f>\	16ff/	.	.
16g>\JJ	16gg/JJ	.	.
16a>\LL	16aa/LL	.	.
!	!	!	!LO:HP:b=2
16b->\JJ	16bb-/	.	[ >
8rg>	16ff/	.	.
.	16dd/JJ)	.	]]
=20	=20	=20	=20
*^	*	*	*
8r	2E-\	(16dd\LL	.	.
.	.	16cc\	.	.
16cLL 16G/	.	16ee-\	.	.
16cJJ 16G/	.	16g\JJ	.	.
8cL 8G/	.	4.cc^\	.	.
8cJ 8G/	.	.	.	.
8r	4E-\	.	.	.
8c 8B- 8G-X/	.	8b-\)	.	.
*v	*v	*	*	*
=21	=21	=21	=21
8FF/	(16b-\LL	.	.
.	16a\)	.	.
4e- 4c 4F^^\	(16a\	.	.
.	16ggn\JJ)	.	.
.	(16gg\LL	.	.
.	16ff\)	.	.
8e-L 8A 8F'\	(16ff\	.	.
.	16ee-\JJ)	.	.
8e- 8A 8F'\	(16ee-\LL	.	.
.	16cc\)	.	.
8e-J 8G 8F'\	(16cc\	.	.
.	16b-\JJ)	.	.
!!LO:LB:g=original
=22	=22	=22	=22
8FF/	(16b-\LL	.	.
.	16a\)	.	.
4e- 4c 4F^^\	(16a\	.	.
.	16gg\JJ)	.	.
.	(16gg\LL	.	.
.	16ff\)	.	.
8e-L 8A 8F'\	(16ff\	.	.
.	16ee-\JJ)	.	.
8e- 8A 8F'\	(16ee-\LL	.	.
.	16cc\)	.	.
8e-J 8G 8F'\	(16cc\	.	.
.	16b-\JJ)	.	.
=23	=23	=23	=23
8e-L 8c 8F\	16a\LL	.	.
.	32r	.	.
.	32ff\K	.	.
8e-J 8G 8F\	16.cc\	.	.
.	32b-\JJk	.	.
8e-L 8c 8F\	16a\LL	.	.
.	32r	.	.
.	32ff\K	.	.
8e-J 8G 8F\	16.cc\	.	.
.	32b-\JJk	.	.
8e-L 8c 8F\	16a\LL	.	.
.	32r	.	.
.	32ff\K	.	.
8e-J 8G 8F\	16.cc\	.	.
.	32b-\JJk	.	.
=24	=24	=24	=24
*^	*^	*	*
!	!	!	!	!	!LO:HP:b=2
8F/L	2.F\	(16a/LL	8a\L	.	<
.	.	16f/	.	.	.
8G/	.	16b-/	8b-\	.	.
.	.	16f/JJ	.	.	.
8A/	.	16cc/LL	8cc\	.	.
.	.	16f/	.	.	.
8B-/	.	16dd/	8dd\	.	.
.	.	16f/JJ	.	.	.
8Bn/	.	16ff/LL	8g#X\	.	.
.	.	16f/	.	.	.
8c/J	.	16ee-/	8a\J	.	[
.	.	16f/JJ)	.	.	.
*	*	*v	*v	*	*
!!LO:LB:g=original
=25	=25	=25	=25	=25
8r	2F#X\	8dd'\L	.	.
16dLL 16c 16A/	.	[8dd^\J	.	.
16dJJ 16c 16A/	.	.	.	.
!	!	!LO:N:vis=16.	!	!
8dL 8c 8A/	.	16dd\LL]	.	.
.	.	16ee-\	.	.
8dJ 8c 8A/	.	16dd\	.	.
.	.	16cc\JJ	.	.
8B-L 8G\	4ryy	(16b-/LL	.	.
.	.	16a/	.	.
8cJ 8G 8E-\	.	16g/	.	.
.	.	16cc/JJ)	.	.
*v	*v	*	*	*
=26	=26	=26	=26
8F'/L	16fLL 16d/	.	.
.	16b-/	.	.
8FF'/J	16a 16c/	.	.
.	16cc/JJ	.	.
8r	(4cc 4a (4e-^/	.	.
8FL 8FF/	.	.	.
8FJ 8BB-/	8b- 8d/))	.	.
8r	8r	.	.
=27	=27	=27	=27
!	!LO:TX:t=P:problem:błędne wyświetlanie łuku	!	!
8B-L 8D 8BB-\	(8ffL 8f^/	.	f
8B-J 8F 8D\	16dd/L	.	.
.	16b-/JJ)	.	.
!	!LO:TX:t=P:problem:błędne wyświetlanie łuku	!	!
8B-L 8D 8BB-\	(8ffL 8f/	.	.
8B-J 8F 8D\	16dd/L	.	.
.	16b-/JJ)	.	.
!	!LO:TX:t=P:problem:błędne wyświetlanie łuku	!	!
8B-L 8D 8BB-\	(8ffL 8f/	Ch: Mos-	.
8B-J 8F 8D\	16dd/L	.	.
.	16b-/JJ)	.	.
!!LO:LB:g=original
=28	=28	=28	=28
8AA\L	16ee-LL 16cc'\	-pa-	.
.	16ddJ 16bn'\	.	.
16F'\L	[8ee-J [8cc^\	.	p
16F'\JJ	.	.	.
8cL 8A'\	16ee-]LL 16cc\]	.	.
.	16dd 16b-X'\	.	.
8F'\	16cc 16a'\	.	.
.	16b-JJ 16g'\	.	.
8FF'\	16aLL 16f'/	-nie	.
.	16g 16e-'/	istne	.
8F'\J	16f 16d'/	.	.
.	16e-JJ 16c'/	.	.
=29	=29	=29	=29
*	*^	*	*
8BB-L 8BBB-\	16d/LL	4ryy	dziwy!	<
.	16f/	.	.	.
8B-J 8F 8D\	16b-/	.	.	.
.	16dd/JJ	.	.	[
8B-L 8D 8BB-\	(<8ff/L	4f\	.	f
8B-J 8F 8D\	16dd/L	.	.	.
.	16b-/JJ)	.	.	.
8B-L 8D 8BB-\	8ff/L	4f\	kie-	.
8B-J 8F 8D\	16dd/L	.	-dy	.
.	16b-/JJ	.	.	.
*	*v	*v	*	*
=30	=30	=30	=30
.	8qff 8qdd/	.	.
8AA\L	16ee-LL 16cc\	waść	.
.	16ddJ 16bn\	.	.
16F\L	[8ee-J [8cc^\	.	.
16F\JJ	.	.	.
8cL 8A\	16ee-]LL 16cc\]	.	p
.	16dd 16b-X'\	.	.
8F\J	16cc 16a'\	tak	.
.	16b-JJ 16g'\	.	.
8FF/L	16aLL 16f'/	dbasz	.
.	16g 16e-'/	.	.
8F/J	16f 16d'/	.	.
.	16e-JJ 16c'/	o	.
!!LO:PB:g=original
=31	=31	=31	=31
8D'\L	8dL 8B-^^</	la-	.
!LO:TX:i:b:t=leggiero	!	!	!
(32c\LL	8b- 8f^^</	-ta	.
32B-\	.	.	.
32A\	.	.	.
32B-\JJJ)	.	.	.
8D'\L	8dd 8f^^</	.	.
(32c\LL	8b-J 8f^^</	.	.
32B-\	.	.	.
32A\	.	.	.
32B-\JJJ)	.	.	.
8D'\L	8.b-L 8.f^^</	.	.
(32c\LL	.	.	.
32B-\	.	.	.
32A\	16aJk 16f/	.	.
32B-\JJJ)	.	.	.
=32	=32	=32	=32
*	*^	*	*
8E-\L	8g/L	8g\L	wi-	.
!	!LO:TX:i:a:t=leggier.	!	!	!
8B-^^\	(<32cc/LL	8g\J	-dać	.
.	32b-/	.	.	.
.	32a/	.	.	.
.	32b-/JJJ)	.	.	.
8d 8E-^^\	8g/L	8g\L	a-	.
8B-^^\	(<32cc/LL	8g\J	-fekt	.
.	32b-/	.	.	.
.	32a/	.	to	.
.	32b-/JJJ)	.	.	.
8A 8E-^^\	8g/L	8g\L	.	.
8G^^\J	(<32cc/LL	8g\J	praw-	.
.	32b-/	.	.	.
.	32a/	.	.	.
.	32b-/JJJ)	.	.	.
*	*v	*v	*	*
!!LO:LB:g=original
=33	=33	=33	=33
8F\L	8b- 8d/	-dzi-	.
(32c\LL	8b-L 8f^^</	-wy.	.
32B-\	.	.	.
32A\	.	.	.
32B-\JJJ)	.	.	.
8F\L	8dd 8d^^</	.	.
(32c\LL	8b-J 8d^^</	.	.
32B-\	.	.	.
32A\	.	.	.
32B-\JJJ)	.	.	.
8F#X\L	8.b-L 8.d^^</	.	.
(32c\LL	.	.	.
32B-\	.	.	.
32A\	16aJk 16d/	.	.
32B-\JJJ)	.	.	.
=34	=34	=34	=34
*^	*	*	*
8B-L 8G'\	2ryy	8g\	.	.
8gJ 8B-'\	.	(32ee-\LLL	.	.
.	.	32dd\	.	.
.	.	32cc#X\	.	.
.	.	32dd\JJJ	.	.
8B-L 8G\	.	8gg\L)	.	.
8gJ 8d\	.	32ccn\LL	.	.
.	.	32b-\	.	.
.	.	32a\	.	.
.	.	32b-\JJJ	.	.
(4E-/	8E-\L	8dd\L	.	.
.	8cJ 8G\	32cc\LL	.	.
.	.	32b-\	.	.
.	.	32a\	.	.
.	.	32g\JJJ	.	.
*v	*v	*	*	*
!!LO:LB:g=original
=35	=35	=35	=35
8A 8D\)	8f#X/	.	.
!	!	!	!LO:HP:b=2:t=cre-scen-do:ext2=cd
(32e-^\LLL	(32ee-^\LLL	.	<
32d\	32dd\	.	.
32c#X\	32cc#X\	.	.
32d\JJJ	32dd\JJJ	.	.
8D'\)	8d'/)	.	.
8AL 8E-'\	8cc#L 8g'/	no	.
8A 8D'\	8dd 8f#'/	coż	.
8AJ 8E-'\	8cc#J 8g'/	.	.
=36	=36	=36	=36
*	*^	*	*
8A 8D\	8dd 8f#X/	4.ryy	piękna?	.
(32e-^\LLL	(32ee-^\LLL	.	.	.
32d\	32dd\	.	.	.
32c#X\	32cc#X\	.	.	.
32d\JJJ	32dd\JJJ	.	.	.
8D'\)	8d/)	.	.	.
8E-L 8EE-/	(<16cc#/LL	8g\L	.	[
.	16gg/JJ	.	.	.
8D 8DD/	16ffLL 16dd/)	8f#\	czy	.
.	16a/	.	.	.
8E-J 8EE-/	16cc#/	8g\J	.	.
.	16gg/JJ	.	bo-	.
*	*v	*v	*	*
!!LO:LB:g=original
=37	=37	=37	=37
8D/ 8DD/	8ff#X 8dd 8f#X\	-gata?	ff
16ALL 16F#X 16D\	16aa\LL	.	.
16d\JJ	16gg\JJ	.	.
8AL 8F# 8D\	8dd\L	.	.
16AL 16F# 16D\	16ff#\L	.	.
16d\JJ	16dd\JJ	.	.
8AL 8F# 8D\	8a\L	.	.
16AL 16F# 16D\	16dd\L	.	.
16d\JJ	16a\JJ	.	.
=38	=38	=38	=38
8AL 8F#X 8D\	8f#X/	.	.
16AL 16F# 16D\	16ff#X\LL	.	.
16d\JJ	16dd\JJ	.	.
8AL 8F# 8D\	8a\L	.	.
16AL 16F# 16D\	16dd\L	.	.
16d\JJ	16a\JJ	.	.
8AL 8F# 8D\	8f#/L	.	.
16AL 16F# 16D\	16a/L	.	.
16d\JJ	16f#/JJ	.	.
=39	=39	=39	=39
8A 8F#X 8D\	8d/	Pod: 	.
!	!LO:TX:i:b:t=a piacere	!	!
8r	16d/LL	Jak	p
.	16en/JJ	ró-	.
4r	16f#X/LL	-ży-	.
.	16g/	-czka	.
.	16a/	ru-	.
.	16bn/JJ	-mia-	.
(<[4A 4E-X\	(4cc (4g/	-niut-	.
!!LO:LB:g=original
=40	=40	=40	=40
8A] 8D\)	8dd 8f#X/))	-ka,	.
8r	16d/LL	jak	.
.	16en/JJ	bur-	.
4r	16f#/LL	-sztów-	.
.	16g/	-ka	.
.	16a/	o-	.
.	16bn/JJ	-krą-	.
4A 4E-X\	(4cc#X (>4g/	-glut-	.
=41	=41	=41	=41
*^	*^	*	*
4A/	[2.D\	16dd/LL)	4f#X\)	-ka,	.
.	.	16cc#X/	.	jak	.
.	.	16ee-/	.	dzier-	.
.	.	16dd/JJ	.	.	.
4e-/	.	16ccn/LL	2g\	-lat-	.
.	.	16bn/	.	-ka	.
.	.	16dd/	.	we-	.
.	.	16cc/JJ	.	-so-	.
4d/	.	16b-X/LL	.	-lut-	.
.	.	16a/	.	-ka,	.
.	.	16cc/	.	ru-	.
.	.	16b-/JJ	.	-mia-	.
!!LO:PB:g=original
=42	=42	=42	=42	=42	=42
4c/	4D\]	16a/LL	4f#\	-niut-	.
.	.	16g#X/	.	-ka,	.
.	.	16b-/	.	o-	.
.	.	16a/JJ	.	-krą-	.
4B-/	4En\	16gn/LL	2ryy	-glut-	.
.	.	16f/	.	-ka,	.
.	.	16a/	.	a-	.
!	!	!LO:TX:i:b:t=rallent.	!	!	!
.	.	16g/JJ	.	-nioł	.
4A/	4F\	16fn/LL	.	dziew-	.
.	.	16e-X/	.	-czy-	.
.	.	16d/	.	-necz-	.
.	.	16c/JJ	.	-ka	.
*	*	*v	*v	*	*
*v	*v	*	*	*
=43	=43	=43	=43
*ped	*	*	*
!	!LO:TX:i:a:t=a tempo	!	!
8BB- 8BBB-/	8B-/	to!	ff
16dLL 16B- 16F 16D\	[8bb- [8dd [8b-^^\	.	.
16dJJ 16B- 16F 16D\	.	.	.
8dL 8B- 8F 8D\	16.bb-]LL 16.dd] 16.b-\]	.	.
.	32ff\K	.	.
8d 8B- 8F 8D\	16.dd\	.	.
.	32ff\JJk	.	.
.	8qccc/	.	.
*Xped	*	*	*
8d 8B- 8F 8D\	16.bb-\LL	.	.
.	32aa\K	.	.
8dJ 8B- 8F 8D\	16.bb-\	.	.
.	32ddd\JJk	.	.
!!LO:LB:g=original
=44	=44	=44	=44
*ped	*8va	*	*
8BB- 8BBB-/	16.fff\LL	.	.
.	32ddd\K	.	.
16dLL 16B- 16F 16D\	16.bb-\	.	.
16dJJ 16B- 16F 16D\	.	.	.
.	32bbb-\JJk	.	.
8dL 8B- 8F 8D\	[4fff^^\	.	.
8d 8B- 8F 8D\	.	.	.
*Xped	*	*	*
8d 8B- 8F 8D\	16.fff\LL]	.	.
.	32eeen\K	.	.
8dJ 8B- 8F 8D\	16.fff\	.	.
.	32fff#X\JJk	.	.
=45	=45	=45	=45
*ped	*	*	*
8EE-\L	8ggg'\L	.	.
16cL 16B- 16G 16E-\	[8gggJ [<8ccc [8gg^^\	.	.
16cJJ 16B- 16G 16E-\	.	.	.
8cL 8B- 8G 8E-\	16.ggg]LL 16.ccc] 16.gg\]	.	.
*Xped	*	*	*
.	32fffn\K	.	.
8cJ 8B- 8G 8E-\	16.eee-\	.	.
.	32ddd\JJk	.	.
8C\L	16.eee-\LL	.	.
.	32ddd\K	.	.
8e-J 8B- 8G\	16.ccc\	.	.
.	32bb-\JJk	.	.
=46	=46	=46	=46
*	*^	*	*
8F\L	16.aa/LL	2ryy	.	.
.	32bb-/K	.	.	.
16cL 16A\	(16.ccc/	.	.	.
16cJJ 16A\	.	.	.	.
.	32aa/JJk)	.	.	.
8c 8A\	8ff/	.	.	.
*	*X8va	*	*	*
8DL 8DD'/	16.f/LL	.	.	.
.	32b-/JJk	.	.	.
8E- 8EE-'/	16.g/LL	8ryy	.	.
.	32b-/JJk	.	.	.
8CJ 8CC'/	16.a/LL	(8e-\	.	.
.	32cc/JJk	.	.	.
!!LO:LB:g=original
=47	=47	=47	=47	=47
*ped	*	*	*	*
8BB- 8BBB-/	16b-/	16d\)	.	.
.	32r	16ryy	.	.
.	32ff\KLL	.	.	.
16dLL 16B- 16F 16D\	16.dd\	2ryy	.	.
16dJJ 16B- 16F 16D\	.	.	.	.
.	32b-\JJk	.	.	.
8d 8B- 8F 8D\	8f/	.	.	.
*Xped	*	*	*	*
8DL 8DD/	16.f/LL	.	.	.
.	32b-/JJk	.	.	.
8E- 8EE-/	16.g/LL	.	.	.
.	32b-/JJk	.	.	.
8CJ 8CC/	16.a/LL	(8e-\	.	.
.	32cc/JJk	.	.	.
=48	=48	=48	=48	=48
*ped	*	*	*	*
8BB- 8BBB-/	16b-/	16d\)	.	.
.	32r	16ryy	.	.
.	32ff\KLL	.	.	.
16dLL 16B- 16F 16D\	16.dd\	4ryy	.	.
16dJJ 16B- 16F 16D\	.	.	.	.
.	32b-\JJk	.	.	.
*Xped	*	*	*	*
8d 8B- 8F 8D\	8f/	.	.	.
8DL 8DD/	16.f/LL	8f\L	.	.
.	32b-/JJk	.	.	.
8C 8CC/	16.g/LL	8en\	.	.
.	32b-/JJk	.	.	.
8FJ 8FF/	16.a/LL	8e-X\J	.	.
.	32cc/JJk	.	.	.
*	*v	*v	*	*
=49	=49	=49	=49
16BB- 16BBB-/	16b- 16d/	.	.
32r	32r	.	.
32F\KLL	32f/KLL	.	.
16.B-\	16.b-/	.	.
32c\JJk	32cc/JJk	.	.
16.d\LL	16.dd\LL	.	.
32B-\K	32b-\K	.	.
16.d\	16.dd\	.	.
32e-\JJk	32ee-\JJk	.	.
.	8qgg/	.	.
16.f\LL	16.ff\LL	.	.
32en\K	32een\K	.	.
16.f\	16.ff\	.	.
32f#X\JJk	32ff#X\JJk	.	.
!!LO:LB:g=original
=50	=50	=50	=50
*ped	*	*	*
8G 8GG/	8gg'\L	.	.
16dLL 16Bn 16G 16D\	[8ggJ [8dd [8bn [8g^^\	.	.
16dJJ 16B 16G 16D\	.	.	.
8d 8B 8G 8D\	16gg]LL 16dd] 16b] 16g\]	.	.
*Xped	*	*	*
.	32r	.	.
.	32ff#X\K	.	.
8dL 8A 8G'\	16een 16cc\	.	.
.	32r	.	.
.	32ff#\JJk	.	.
8g 8d 8G'\	16ggLL 16b\	.	.
.	32r	.	.
.	32ff#\K	.	.
8dJ 8A 8G'\	16ee 16cc\	.	.
.	32r	.	.
.	32ff#\JJk	.	.
=51	=51	=51	=51
*ped	*	*	*
8G 8GG/	8ggL 8bn\	.	.
16dLL 16Bn 16G 16D\	[8ggJ [8dd [8b [8g\	.	.
16dJJ 16B 16G 16D\	.	.	.
*Xped	*	*	*
8d 8B 8G\	16gg]LL 16dd] 16b] 16g\]	.	.
.	32r	.	.
.	32ff#X\K	.	.
8dL 8A 8G'\	16een 16cc\	.	.
.	32r	.	.
.	32ff#\JJk	.	.
8g 8d 8G'\	16ggLL 16b\	.	.
.	32r	.	.
.	32ff#\K	.	.
8dJ 8A 8G'\	16ee 16cc\	.	.
.	32r	.	.
.	32ff#\JJk	.	.
=52	=52	=52	=52
*	*^	*	*
8dL 8G'\	16gg/LL	8bn\L	.	.
.	16ffn/	.	.	.
8c\J	16een/	8b-X\	.	.
.	16gg/JJ	.	.	.
8cL 8F'\	16ff/LL	8a\	.	.
.	16ee-X/	.	.	.
8B-\J	16dd/	8a-X\	.	.
.	16ff/JJ	.	.	.
8B-L 8E-'\	16ee-/LL	8g\	.	.
.	16dd/	.	.	.
8An\J	16cc/	8g\J	.	.
.	16ee-/JJ	.	.	.
!!LO:LB:g=original
=53	=53	=53	=53	=53
8AL 8D\	16dd/LL	8f#X\L	.	.
.	16cc/	.	.	.
8G\J	16bn/	8fn\	.	.
.	16dd/JJ	.	.	.
8GL 8C\	16cc/LL	8en\	.	.
.	16b-X/	.	.	.
8F\J	16a/	8e-X\	.	.
.	16cc/JJ	.	.	.
8B-L 8F 8BB-\	16b-T/LL	8d\J	.	.
.	16a/	.	.	.
8c#XJ 8G 8En\	16b-/	8r	.	.
.	16g/JJ	.	.	.
*	*v	*v	*	*
=54	=54	=54	=54
8d 8B- 8F\	8f^/L	.	.
(16G\LL	(16g/L	.	.
16A\JJ	16a/JJ	.	.
8qcn/	8qcc/	.	.
16B-\LL	16b-\LL	.	.
16A\	16a\	.	.
16B-\	16b-\	.	.
16c\JJ	16cc\JJ	.	.
16d\LL	16dd\LL	.	.
16B-\	16b-\	.	.
16d\	16dd\	.	.
16g\JJ)	16gg\JJ)	.	.
=55	=55	=55	=55
8f'\L	16.ff\LL	.	.
.	32ff#X\K	.	.
8F'\J	16.gg 16.ee-\	.	.
.	32aa\JJk	.	.
8r	(4ccc 4aa 4ffn 4ee-^\	.	.
8F 8FF'/	.	.	.
8B- 8F 8BB-'\	8bb- 8ff 8dd\)	.	.
8r	8r	.	.
!!LO:PB:g=original
=56||	=56||	=56||	=56||
*k[b-e-a-]	*k[b-e-a-]	*	*
8E- 8BB- 8EE-/	8gg 8ee- 8b- 8g\	.	ff
8r	8r	.	.
8G 8BB- 8GG/	8ee- 8b- 8e-/	.	.
8r	8r	.	.
8A- 8E- 8AA-\	8ff 8ee- 8cc 8f\	.	.
8r	8r	.	.
=57	=57	=57	=57
8FL 8BB-\	8b- 8d/	.	.
16dL 16B-'\	16b-LL 16a- 16f'/	.	.
16e-JJ 16B-'\	16ccJJ 16a- 16f'/	.	.
8d 8B-'\	8b- 8a- 8f'/	.	.
*clefG2	*	*	*
(16B-/LL	(16b-\LL	.	.
16d/JJ	16dd\JJ	.	.
16f/LL	16ff\LL	.	.
16a-/	16aa-\	.	.
16cc/	16ccc\	.	.
16b-/JJ)	16bb-\JJ)	.	.
*clefF4	*	*	*
=58	=58	=58	=58
8E- 8BB- 8EE-/	8ggL 8ee- 8b-\	.	f
8r	(32bb-\LL	.	.
.	32aa-\	.	.
.	32gg\	.	.
.	32ff\JJJ	.	.
8G 8BB- 8GG/	8ee-\L)	.	.
8r	(32gg\LL	.	.
.	32ff\	.	.
.	32ee-\	.	.
.	32dd\JJJ	.	.
8F 8C 8AA-/	8cc\L)	.	.
8r	(32ff\LL	.	.
.	32ee-\	.	.
.	32dd\	.	.
.	32cc\JJJ	.	.
!!LO:LB:g=original
=59	=59	=59	=59
8F 8D 8BB-\	8b-\)	.	.
*clefG2	*	*	*
16ddLL 16b-'\	16bb-LL 16aa- 16ff'\	.	.
16ee-JJ 16b-'\	16cccJJ 16aa- 16ff'\	.	.
8dd 8b-'\	8bb- 8aa- 8ff'\	.	.
*clefF4	*	*	*
(16d\LL	(16dd\LL	.	.
16c\JJ	16cc\JJ	.	.
16B-\LL	16b-/LL	.	.
16A-\	16a-/	.	.
16F\	16f/	.	.
16D\JJ)	16d/JJ)	.	.
=60	=60	=60	=60
8BB-^/L	8.B-^/L	Ch: A-	.
16BBn'/L	.	.	.
16BB'/JJ	16Bn'/Jk	-le	.
8C'/L	8c'/L	jak	.
8D'/	8d'/	mi	.
8E-'/	8e-'/	po-	.
8En'/J	8en'/J	-wia-	.
=61	=61	=61	=61
8F\L	8f/L	-da-	<
16G\L	8g/J	-li,	.
16G\JJ	.	.	.
8A-'\L	8a-'/L	Kaź-	.
8An'\	8an'/	-mierz	.
8B-'\	8b-'/	tu	.
8dJ 8G'\	8bnJ 8f'/	cho-	[
!!LO:LB:g=original
=62	=62	=62	=62
8cL 8A-'\	8ccL 8e-'</	-lew-	.
16r	16r	.	.
16cJk 16F\	16a-XJk 16f/	-ki	p
4B-\	(4g 4e-/	sma-	.
4A- 4BB-\	4f 4dt/	.	.
=63	=63	=63	=63
8EE-'/L	4e-/)	-li.	.
16GL 16BB-'/	.	.	.
16GJJ 16BB-'/	.	.	.
8EE-'/L	4r	.	.
8GJ 8BB-'/	.	.	.
8EE-'/L	8r	.	.
8GJ 8BB-'/	8B-/	Pod: Tak, pan	.
=64	=64	=64	=64
8A-L 8EE-'/	(>4.B-/	Kaź-	.
16GL 16BB-'/	.	.	.
16GJJ 16BB-/	.	.	.
8EE-'/L	.	.	.
8GJ 8BB-'/	8g/L	-mierz	.
8EE-'/L	8f/	i	.
8GJ 8BB-'/	8e-/J	mój	.
!!LO:LB:g=original
=65	=65	=65	=65
.	8qf/	.	.
8FF/	8.e-/L	Dzi-	.
16A-LL 16BB-\	.	.	.
16A-JJ 16BB-\	16d/Jk	-dzi,	.
8FF/L	4.d^/)	pan	.
8A-J 8BB-/	.	.	.
8AA-/L	.	.	.
8FJ 8BB-/	8d/	Bo-	.
=66	=66	=66	=66
8GG/L	16e-/LL	-gu-	.
.	16d/	.	.
8E-J 8BB-/	16e-/	.	.
.	16f/JJ	.	.
8EE-/L	16g/LL	-sław	.
.	16f/	.	.
8GJ 8BB-/	16g/	.	.
.	16a-/JJ	.	.
8EE-/L	8.b-^/L	i	.
8GJ 8BB-/	.	.	.
.	32g/LL	Chry-	.
.	32e-/JJJ	.	.
=67	=67	=67	=67
.	8qf/	.	.
8FF/L	8.e-/L	-zan-	.
16A-L 16D-X/	.	.	.
16A-JJ 16D-/	16d-X/Jk	-ty,	.
8FF/L	4d-/	.	.
8A-J 8D-/	.	.	.
8FF/L	8r	.	.
8GJ 8BB-/	(8d-/	Grzesio,	.
!!LO:LB:g=original
=68	=68	=68	=68
8EEn/L	16c/LL)	Ka-	.
.	16cc/JJ	.	.
16GL 16C/	4cc^\	-rol	.
16GJJ 16C/	.	.	.
8EE/L	.	.	.
8GJ 8BB-/	8dd-X\L	i	.
8EE/L	8cc\	Kon-	.
8GJ 8BB-/	8b-\J	.	.
=69	=69	=69	=69
8EE-X/L	(16b-/LL	-stan-	.
.	16an/)	.	.
16FL 16C/	(16a/	.	.
16FJJ 16C/	16cc/JJ)	.	.
8EE-/L	[4f/	-ty,	.
8FJ 8AAn/	.	.	.
8EE-/L	16f/LL]	pan	.
.	16g/	.	.
8FJ 8C/	16a-X/	Mar-	.
.	16b-/JJ	-sza-	.
=70	=70	=70	=70
8EE-/L	[4cc-X^\	.	.
16A-L 16C-X/	.	.	.
16A-JJ 16C-/	.	.	.
8EE-/L	16cc-/LL]	-łek	.
.	16b-/	.	.
8A-J 8C-/	16a-X/	.	.
.	16b-/JJ	i	.
8EE-/L	16cc-/LL	.	.
.	16a-/	.	.
8A-J 8C-/	16f/	.	.
.	16e-/JJ	Pod-	.
!!LO:PB:g=original
=71	=71	=71	=71
.	8qf/	.	.
8FF/L	(16e-/LL	-sto-	.
.	16d/)	.	.
8A-J 8BB-/	(16d/	.	.
.	16b-/JJ)	.	.
8DD/L	4.b-^\	-lic,	.
8FJ 8BB-/	.	.	.
8BBB-/L	.	.	.
8DJ 8BB-/	8a-/	ten z Czer-	.
=72	=72	=72	=72
8EE-/L	8g'/	-skie-	.
16E-L 16BB-/	(4g/	-go,	.
16E-JJ 16BB-/	.	.	.
8EE-/L	.	.	.
8E-J 8BB-/	16a-/LL	z pod	.
.	16g/JJ	.	.
8EE-/L	16f/LL	.	.
.	16e-/	.	.
8GJ 8BB-/	16d/	Ga-	.
.	16c/JJ	.	.
=73	=73	=73	=73
8DD/L	8B-/)	-go-	.
8FJ 8BB-/	4f/	-lic,	.
8BBB-/L	.	.	.
8DJ 8BB-/	4b-\	wiesz	.
8DD/L	.	.	.
8FJ 8BB-/	(8a-/	Cho-	.
!!LO:LB:g=original
=74	=74	=74	=74
8EE-/L	8g/L)	-rą-	.
16GL 16BB-/	[8g^/J	-ży	.
16GJJ 16BB-/	.	.	.
8EE-/L	16g/LL]	.	.
.	16b-/	.	.
8GJ 8BB-/	16a-/	.	.
.	16g/JJ	.	.
8EE-/L	16f/LL	z 	.
.	16e-/	pod	.
8GJ 8BB-/	16d/	.	.
.	16c/JJ	Gą-	.
=75	=75	=75	=75
8DD/L	16B-/LL	-go-	.
.	16d/	-lic.	.
8FJ 8BB-/	16f/	.	.
.	16b-/JJ	.	.
8BBB-/L	8.dd^\L	.	.
8F 8BB-/	.	.	.
.	16cc\Jk	.	.
8BBB-/	(16cc\LL	.	.
.	16b-\)	.	.
8DJ 8BB-/	(16b-\	.	.
.	16a-\JJ)	.	.
!!LO:LB:g=original
=76	=76	=76	=76
*ped	*	*	*
8GL 8D 8BBn\	(16g/LL	Ch: Waść	pp
.	16bn/JJ	też	.
8G 8D 8BB\	4d/)	.	.
8G 8D 8BB\	.	.	.
*Xped	*	*	*
8GJ 8D 8BB\	16c#X'/LL	sie-	.
.	16d'/JJ	-bie	.
8AnL 8C\	16d#X'/LL	.	.
.	16en'/	ma	.
8AJ 8D 8C\	16e#X'/	.	.
.	16f#X'/JJ	już	.
=77	=77	=77	=77
*ped	*	*	*
8GL 8D 8BBn\	(16g/LL	za	.
.	16bn/JJ	nic	.
16GL 16D 16BB\	4d/)	że	.
16GJJ 16D 16BB\	.	.	.
8GL 8D 8BB\	.	.	.
*Xped	*	*	*
8G 8D 8BB\	16c#X'/LL	tak	.
.	16d'/JJ	ze	.
8An 8C\	16d#X'/LL	.	.
.	16en'/	mnie	.
8AJ 8D 8C\	16e#X'/	.	.
.	16f#X'/JJ	.	.
!!LO:LB:g=original
=78	=78	=78	=78
8GL 8D 8BBn\	16g/LL	szydzi.	<
.	32r	.	.
.	32a-X/K	.	.
8G 8E- 8C\	16g/	.	.
.	32r	.	.
.	32a-/JJk	.	.
8G 8D 8BB\	16g/LL	.	.
.	32r	.	.
.	32a-/K	.	.
8G 8E- 8C\	16g/	.	.
.	32r	.	.
.	32a-/JJk	.	.
8G 8D 8BB\	16g/LL	.	.
.	32r	.	.
.	32a-/K	.	.
8GJ 8E- 8C\	16g/	.	.
.	32r	.	.
.	32a-/JJk	.	[[
=79	=79	=79	=79
8G 8D 8BBn\	16g\LL	.	f
.	32r	.	.
.	32aa-\K	.	.
8GL 8E- 8C/	16gg\	.	.
.	32r	.	.
.	32aa-\JJk	.	.
8G 8D 8BB 8GG/	16gg\LL	.	.
.	32r	.	.
.	32aa-\K	.	.
8G 8E- 8C/	16gg\	.	.
.	32r	.	.
.	32aa-\JJk	.	.
8G 8D 8BB 8GG/	16gg\LL	.	.
.	32r	.	.
.	32aa-\K	.	.
8GJ 8E- 8C/	16gg\	.	.
.	32r	.	.
.	32aa-\JJk	.	.
!!LO:LB:g=original
=80	=80	=80	=80
8G 8D 8BBn 8GG/	16gg\	Pod: Da-	>
.	32r	.	.
.	32a-/	.	.
8r	16g/LL	.	.
.	32r	.	.
.	32a-/JJk	.	.
4r	16g/LL	.	.
.	32r	.	.
.	32a-/K	.	.
.	16g/	.	.
.	32r	.	.
.	32a-/JJk	.	.
4r	16g/LL	.	.
.	32r	.	.
.	32a-/K	.	.
.	16g/	.	.
.	32r	.	.
.	32a-/JJk	.	]]
=81	=81	=81	=81
2.r	16g^/LL	-lej	.
.	16f/	.	.
.	16e-/	.	.
.	16d/JJ	.	.
.	16f^/LL	.	.
.	16e-/	.	.
.	16d/	.	.
.	16c/JJ	.	.
.	16e-^/LL	.	.
.	16d/	.	.
.	16c/	.	.
.	16B-/JJ	.	.
!!LO:PB:g=original
=82	=82	=82	=82
8EE-'/L	(4.B-^/	Hra-	p
16GL 16E-'/	.	.	.
16GJJ 16E-'/	.	.	.
8BB-'\L	.	.	.
8GJ 8E-'\	8g/L)	-bia,	.
8EE-'/L	8f/	Kasz-	.
8GJ 8E-'/	8e-/J	-te-	.
=83	=83	=83	=83
.	8qf/	.	.
*	*^	*	*
8FF\L	(4.b-/	8.e-\L	-lanie,	.
16A-L 16BB-\	.	.	.	.
16A-JJ 16BB-\	.	16d\Jk	.	.
8A-L 8BB-\	.	4d\	.	.
8A-J 8BB-\	8cc/L	.	i z	.
8AA-\L	8d/	4r	pod	.
8FJ 8BB-\	8f/J)	.	.	.
*	*v	*v	*	*
=84	=84	=84	=84
8GG/L	(16e-/LL	Bla-	.
.	16d/	-chy	.
16E-L 16BB-/	16e-/	.	.
16E-JJ 16BB-/	16f/JJ	.	.
8E-L 8BB- 8GG/	16g/LL	.	.
.	16f/	.	.
8E- 8BB- 8GG/	16g/	.	.
.	16a-/JJ	.	.
8E- 8BB- 8GG/	16cc/LL	coś	.
.	16b-/	.	.
8E-J 8BB- 8GG/	16g/	tam	.
.	16e-/JJ)	.	.
!!LO:LB:g=original
=85	=85	=85	=85
*ped	*	*	*
8GG^\L	[4dd-X [4b-^\	było	.
16B-L 16E-\	.	.	.
16B-JJ 16E-\	.	.	.
8B-L 8E-\	16dd-]LL 16b-'/]	.	.
.	16cc 16a-'/	.	.
8B-J 8E-\	16b- 16g'/	.	.
*Xped	*	*	*
.	16a-JJ 16f'/	.	.
8GG\L	16gLL 16e-'/	z Li-	.
.	16f 16d-X'/	-twy	.
8B-J 8E-\	16e- 16c'/	.	.
.	16d-JJ 16B-'/	.	.
=86	=86	=86	=86
*ped	*	*	*
8AA-\L	16c/LL	Sy-	.
.	16cc/JJ	-ryn,	.
8cJ 8E-\	4cc^\	.	.
*Xped	*	*	*
8GG\L	.	.	.
8B-J 8En\	8dd-X\L	.	.
8CC/L	8.cc\	Maj-	.
8GJ 8E 8C/	.	.	.
.	16b-\Jk	-da-	.
=87	=87	=87	=87
8EE-X/L	(16b-/LL	-no-	.
.	16an/)	-wicz,	.
16FL 16C/	(16a/	.	.
16FJJ 16C/	16cc/JJ)	.	.
8FL 8C\	[4f^/	.	<
8FJ 8C\	.	.	.
8EE-/L	16f/LL]	Ćwi-	.
.	16g/	-ta,	.
8FJ 8C/	16a-X/	.	.
.	16b-/JJ	.	[[
!!LO:LB:g=original
=88	=88	=88	=88
*ped	*	*	*
8EE-/L	[4cc-X^\	.	.
16A-L 16E- 16C-X/	.	.	.
16A-JJ 16E- 16C-/	.	.	.
*Xped	*	*	*
8A-L 8E- 8C-\	16cc-/LL]	bra-	.
.	16b-/	-cia	.
8A- 8E- 8C-\	16a-/	.	.
.	16b-/JJ	.	.
8A- 8E- 8C-\	16cc-/LL	Gier-	.
.	16a-/	-bu-	.
8A-J 8E- 8C-\	16f/	.	.
.	16e-/JJ	.	.
=89	=89	=89	=89
.	8qf/	.	.
8FF'/L	16e-/LL	-to-	.
.	16d/	-wicz;	.
8A-J 8BB-'/	16d/	.	.
.	16b-/JJ	.	.
8DD'/L	(<4..b-\	z Żmu-	.
8FJ 8BB-'/	.	.	.
8BBB-'/L	.	.	.
8DJ 8BB-'/	.	.	.
.	16a-/)	-dzi	.
=90	=90	=90	=90
*^	*	*	*
8r	2EE-\	8g'/	Łap-	.
16E-LL 16BB-/	.	(4g^/	-pa,	.
16E-JJ 16BB-/	.	.	.	.
8E-L 8BB-/	.	.	.	.
8E-J 8BB-/	.	16b-/LL	.	.
.	.	16a-/JJ	.	.
8r	4GG\	16g/LL	.	.
.	.	16f/	.	.
8E- 8BB-/	.	16e-/	Wo-	.
.	.	16d/JJ)	-ron-	.
*v	*v	*	*	*
!!LO:LB:g=original
=91	=91	=91	=91
8E-L 8C 8AA-/	(16c/LL	-czył-	.
.	16ee-/JJ)	-ło	.
!	!	!	!LO:HP:b:t=molto cre-scen-do:ext=s:ext2=cd
8E- 8C 8AA-/	(4ee-^\	.	<
8E- 8C 8AA-/	.	.	.
8E- 8C 8AA-/	16dd\LL	.	.
.	16cc\JJ	.	.
8E- 8C 8AA-/	16bn\LL	.	.
.	16cc\	.	.
8E-J 8C 8AA-/	16dd\	te-	.
.	16cc\JJ)	-raz	.
=92	=92	=92	=92
8EnL 8C 8AA-/	(16c/LL	wy-	.
.	16ee-/JJ)	-szli	.
8E 8C 8AA-/	(4ee-^\	.	.
8E 8C 8AA-/	.	.	.
8E 8C 8AA-/	16dd\LL	mi	.
.	16cc\JJ	.	.
8E 8C 8AA-/	16bn\LL	.	.
.	16cc\	.	.
8EJ 8C 8AA-/	16dd\	z	.
.	16cc\JJ)	pa-	.
!!LO:LB:g=original
=93	=93	=93	=93
8FL 8C 8AA-/	16r	.	.
.	16ee-\	-mięci	.
8F 8C 8AA-/	(4ee-^\	dwaj	.
8F 8C 8AA-/	.	.	.
8FJ 8C 8AA-/	16dd\LL	z	.
.	16cc\JJ	Ga-	.
8F#XL 8C 8AA-/	16bn\LL	-licyi	.
.	16cc\	.	.
8F#J 8C 8AA-/	16dd\	.	.
.	16cc\JJ)	.	[[
=94	=94	=94	=94
8GL 8C 8GG/	16r	.	.
.	16ee-\	kon-	.
8GJ 8C 8GG/	(4ee-^\	-kurenci	.
8E- 8C 8FF#X/	.	.	.
8cL 8An 8F#X\	16dd\LL	z	.
.	16cc\JJ	Wiel-	.
8c 8A 8F#\	16bn\LL	.	.
.	16cc\	.	.
8cJ 8A 8F#\	16dd\	-ko-	.
.	16cc\JJ)	.	.
!!LO:PB:g=original
=95	=95	=95	=95
8Fn 8C 8FFn/	8ff 8cc 8an\	-polski.	sf
8r	8r	.	.
4r	(4.cc^\	Ch: Łeb	.
4r	.	.	.
.	8a/	się	.
=96	=96	=96	=96
4r	4g/	krę-	.
4r	8f/)	-ci!	.
.	8r	.	.
8.F\L	8.f/L	To	p
16F\Jk	16f/Jk	szczęś-	.
=97	=97	=97	=97
4.B-\	4.b-^\	-li-	.
8An'\L	8an'/L	-wie	.
8G'\	8g'/	coś	.
8F#X'\J	8f#X'/J	krew-	.
=98	=98	=98	=98
8G'\L	8g'/L	-niacz-	.
8D'\J	8d'/J	-ka	.
4E-\	4e-/	do-	.
4En\	4en/	-lę	.
!!LO:LB:g=original
=99	=99	=99	=99
4F\	8.f/L	wdo-	.
.	16f/Jk	-wią	.
4C/	4g 4e-X/	roz-	.
4FF/	4an 4f 4e- 4c/	-po-	.
=100	=100	=100	=100
8BB- 8BBB-/	8b- 8f 8d/	-czyna.	.
16r	16r	.	.
*clefG2	*	*	*
(32dd\LLL	(32bb-\LLL	.	.
32ff\JJJ	32ccc\JJJ	.	.
8bb-'\)	8ddd'\)	.	.
8r	8r	.	.
4r	8.d/L	A	.
.	16d/Jk	coż	.
*clefF4	*	*	*
=101	=101	=101	=101
*^	*^	*	*
8r	(2.F#X\	4.dd/	8r	mo-	.
8c 8An/	.	.	16d\LL	.	.
.	.	.	16d\JJ	.	.
8cL 8A/	.	.	8d\L	.	.
8c 8A/	.	8cc'/L	8d\	-ja	.
8c 8A/	.	8b-'/	8d\	.	.
8cJ 8A/	.	8an'/J	8d\J	tam	.
!!LO:LB:g=original
=102	=102	=102	=102	=102	=102
8ryy	2.G\)	(4b-/	8r	dziewczyna,	.
16B-/LL	.	.	16d\LL	.	.
16B-/JJ	.	.	16d\JJ	.	.
8B-/L	.	8g/)	8d\L	.	.
8B-/	.	8r	8d\	.	.
8B-/	.	8.g/L	8d\	moja	.
8B-/J	.	.	8d\J	.	.
.	.	16g/Jk	.	.	.
=103	=103	=103	=103	=103	=103
(2.G/	(2.E-X\	4.cc/	(2c^\	Bronia	.
.	.	8g/L	.	.	.
.	.	8.g/	4c#X\)	niebo-	.
.	.	16f#X/Jk	.	.	.
*v	*v	*	*	*	*
*	*v	*v	*	*
=104	=104	=104	=104
8D\))	(4b- (4g/	-raczka?	mf
(32e-\LLL	.	.	.
32d\	.	.	.
32c#X\	.	.	.
32d\JJJ)	.	.	.
8d 8D\	8an 8f#X/))	Pod: 	.
8AnL 8E-'\	8ccL 8g'/	Jakto	.
8A 8D'\	8dd 8f#'/	twoja	.
8AJ 8E-'\	8ccJ 8g'/	skądże	.
!!LO:LB:g=original
=105	=105	=105	=105
*	*^	*	*
8An 8D'\	8dd 8f#X'/	4.ryy	znów?	.
(32e-^\LLL	(32ee-^\LLL	.	.	.
32d\	32dd\	.	.	.
32c#X\	32cc#X\	.	.	.
32d\JJJ	32dd\JJJ	.	.	.
8D\)	8d'/)	.	.	.
8E-L 8EE-'/	16cc#/LL	8g\L	Ch: 	.
.	16gg/JJ	.	.	.
8D 8DD'/	16ff#X/LL	8f#\	Prze-	.
.	16a-/	.	.	.
8E-J 8EE-'/	16cc#/	8g\J	-cież	.
.	16gg/JJ	.	.	.
*	*v	*v	*	*
=106	=106	=106	=106
8D 8DD/	8ff#X 8dd 8f#X\	wnucz-	f
16AnLL 16F#X 16D\	16aan\LL	.	.
16d\JJ	16ff#\JJ	.	.
8AL 8F# 8D\	8dd\L	.	.
16AL 16F# 16D\	16ff#\L	.	.
16d\JJ	16dd\JJ	.	.
8AL 8F# 8D\	8an/L	.	.
16AL 16F# 16D\	16dd/L	.	.
16d\JJ	16a/JJ	.	.
=107	=107	=107	=107
8AnL 8F#X 8D\	8f#X/	-ka!	.
16AL 16F# 16D\	16ff#X\LL	.	.
16d\JJ	16dd\JJ	.	.
8AL 8F# 8D\	8an\L	.	.
16AL 16F# 16D\	16dd\L	Pod: 	.
16d\JJ	16a\JJ	.	.
8AL 8F# 8D\	8f#/L	Bądźże	.
16AL 16F# 16D\	16a/L	.	.
16d\JJ	16f#/JJ	.	.
!!LO:LB:g=original
=108||	=108||	=108||	=108||
*k[b-e-]	*k[b-e-]	*	*
4DD\	4d 4D</	zdrów! Na śmierć o tem zapomniałem!	.
4r;	4r;	.	.
8.D\L	8.d/L	Ja	p
16D\Jk	16d/Jk	się	.
=109	=109	=109	=109
4.B-\	4.b-\	nie	.
8A\L	8a/L	w niéj	.
8G\	8g/	po-	.
8B-\J	8b-/J	-ko-	.
=110	=110	=110	=110
(4A\	(4a/	-cha-	.
8D\)	8d/)	-łem.	.
8r	8r	.	.
4r	8.a\L	Ch: A	.
.	16dd\Jk	spo-	.
=111	=111	=111	=111
*	*^	*	*
2.r	8.dd/L	(2.g 2.e-\	-dzie-	.
.	16cc/Jk	.	-wam	.
.	4cc/	.	się!	.
.	8.cc/L	.	Ta	.
.	16cc/Jk	.	sie-	.
!!LO:PB:g=original
=112	=112	=112	=112	=112
2.F 2.FF/	(4cc/	2.f 2.d\)	-rot-	.
.	8b-/)	.	-ka, tak	.
.	8r	.	.	.
.	8.b-/L	.	mło-	.
.	16b-/Jk	.	.	.
=113	=113	=113	=113	=113
2F 2FF/	8b-/L	2e- 2c\	-dziut-	.
.	8a/J	.	-ka!	.
.	4.a/	.	Pod: To	.
4E- 4EE-/	.	4c#X\	.	.
.	8g/	.	sto-	.
*	*v	*v	*	*
=114	=114	=114	=114
!	!LO:TX:i:b:t=a piacere	!	!
8D 8DD/	16f#XLL 16d/	-krot-	.
.	16a/JJ	-ka!	.
8r	16d/LL	Jak	.
.	16en/JJ	.	.
4r	16f#/LL	ró-	.
.	16g/	-ży-	.
.	16a/	-czka...	.
.	16bn/JJ	.	.
(4G (4E-X\	(4cc#X (4g/	.	.
=115	=115	=115	=115
8A 8D\))	8dd 8f#X/))	.	.
8r	16d/LL	.	.
.	16en/JJ	.	.
4r	16f#/LL	.	.
.	16g/	.	.
.	16a/	.	.
.	16bn/JJ	.	.
4A 4E-X\	(>4cc#X (4g/	.	.
!!LO:LB:g=original
=116	=116	=116	=116
*^	*^	*	*
4A/	[2.D\	16dd/LL)	4f#X\)	.	.
.	.	16cc#X/	.	.	.
.	.	16ee-/	.	.	.
.	.	16dd/JJ	.	.	.
4e-/	.	16ccn/LL	2g\	.	.
.	.	16bn/	.	.	.
.	.	16dd/	.	.	.
.	.	16cc/JJ	.	.	.
4d/	.	16b-X/LL	.	.	.
.	.	16a/	.	.	.
.	.	16cc/	.	.	.
.	.	16b-/JJ	.	.	.
*	*	*v	*v	*	*
=117	=117	=117	=117	=117
4c/	4D\]	16aLL 16f#X/	.	.
.	.	16g#X/	.	.
.	.	16b-/	.	.
.	.	16a/JJ	.	.
4B-/	4En\	16gn/LL	.	.
.	.	16f#/	.	.
!	!	!LO:TX:i:b:t=rall.	!	!
.	.	16a/	.	.
.	.	16g/JJ	.	.
4A/	4F\	16fn/LL	.	.
.	.	16e-X/	.	.
.	.	16d/	.	.
.	.	16c/JJ	.	.
*v	*v	*	*	*
=118	=118	=118	=118
*ped	*	*	*
!	!LO:TX:i:a:t=a tempo	!	!
8BB- 8BBB-/	8B-/	.	ff
16dLL 16B- 16F 16D\	[8bb- [8dd [8b-\	.	.
16dJJ 16B- 16F 16D\	.	.	.
8dL 8B- 8F 8D\	16.bb-]LL 16.dd] 16.b-\]	.	.
.	32ff\K	.	.
8d 8B- 8F 8D\	16.dd\	.	.
.	32ff\JJk	.	.
.	8qccc/	.	.
*Xped	*	*	*
8B- 8F 8D\	16.bb-\LL	.	.
.	32aa\K	.	.
8dJ 8B- 8F 8D\	16.bb-\	.	.
.	32ddd\JJk	.	.
!!LO:LB:g=original
=119	=119	=119	=119
*ped	*8va	*	*
8BB- 8BBB-/	16.fff\LL	.	.
.	32ddd\K	.	.
16dLL 16B- 16F 16D\	16.bb-\	.	.
16dJJ 16B- 16F 16D\	.	.	.
.	32bbb-\JJk	.	.
8dL 8B- 8F 8D\	[4fff^^\	.	.
8d 8B- 8F 8D\	.	.	.
*Xped	*	*	*
8d 8B- 8F 8D\	16.fff\LL]	.	.
.	32eeen\K	.	.
8dJ 8B- 8F 8D\	16.fff\	.	.
.	32fff#X\JJk	.	.
=120	=120	=120	=120
*ped	*	*	*
8EE-\L	8ggg'\L	.	.
16cL 16B- 16G 16E-\	[8gggJ [8ccc [8gg^^\	.	.
16cJJ 16B- 16G 16E-\	.	.	.
8cL 8B- 8G 8E-\	16.ggg]LL 16.ccc] 16.gg\]	.	.
.	32fffn\K	.	.
*Xped	*	*	*
8cJ 8B- 8G 8E-\	16.eee-\	.	.
.	32ddd\JJk	.	.
8C\L	16.eee-\LL	.	.
.	32ddd\K	.	.
8e-J 8B- 8G\	16.ccc\	.	.
.	32bb-\JJk	.	.
=121	=121	=121	=121
*	*^	*	*
8F\L	(16.aa/LL	2ryy	.	.
.	32bb-/K)	.	.	.
16cL 16A\	(16.ccc/	.	.	.
16cJJ 16A\	.	.	.	.
.	32aa/JJk)	.	.	.
8c 8A\	8ff/	.	.	.
*	*X8va	*	*	*
8DL 8DD'/	16.f/LL	.	.	.
.	32b-/JJk	.	.	.
8E- 8EE-'/	16.g/LL	8ryy	.	.
.	32b-/JJk	.	.	.
8CJ 8CC'/	16.a/LL	(8e-\	.	.
.	32b-/JJk	.	.	.
!!LO:LB:g=original
=122	=122	=122	=122	=122
*ped	*	*	*	*
8BB- 8BBB-/	16b-/	16d\)	.	.
.	32r	16ryy	.	.
.	32ff\KLL	.	.	.
16d\LL 16B-\ 16F\ 16D\	16.dd\	2ryy	.	.
16d\JJ 16B-\ 16F\ 16D\	.	.	.	.
.	32b-\JJk	.	.	.
8d 8B- 8F 8D\	8f/	.	.	.
*Xped	*	*	*	*
8DL 8DD\	16.f/LL	.	.	.
.	32b-/JJk	.	.	.
8E- 8EE-/	16.g/LL	.	.	.
.	32b-/JJk	.	.	.
8CJ 8CC/	16.a/LL	(8e-\	.	.
.	32cc/JJk	.	.	.
=123	=123	=123	=123	=123
*ped	*	*	*	*
8BB- 8BBB-/	16b-/	16d\)	.	.
.	32r	16ryy	.	.
.	32ff\KLL	.	.	.
16dLL 16B- 16F 16D\	16.dd\	4ryy	.	.
16dJJ 16B- 16F 16D\	.	.	.	.
.	32b-\JJk	.	.	.
8d 8B- 8F 8D\	8f/	.	.	.
*Xped	*	*	*	*
8DL 8DD/	16.f/LL	8f\L	.	.
.	32b-/JJk	.	.	.
8C 8CC/	16.g/LL	8en\	.	.
.	32b-/JJk	.	.	.
8FJ 8FF/	16.a/LL	8e-X\J	.	.
.	32cc/JJk	.	.	.
*	*v	*v	*	*
=124	=124	=124	=124
16BB- 16BBB-/	16b- 16d/	.	.
32r	32r	.	.
32F\KLL	32f/KLL	.	.
16.B-\	16.b-/	.	.
32c\JJk	32cc/JJk	.	.
16.d\LL	16.dd\LL	.	.
32B-\K	32b-\K	.	.
16.d\	16.dd\	.	.
32e-\JJk	32ee-\JJk	.	.
.	8qgg/	.	.
16.f\LL	16.ff\LL	.	.
32en\K	32een\K	.	.
16.f\	16.ff\	.	.
32f#X\JJk	32ff#X\JJk	.	.
!!LO:LB:g=original
=125	=125	=125	=125
*ped	*	*	*
8G 8GG/	8gg'\L	.	.
16dLL 16Bn 16G 16D\	[8ggJ [8dd [8bn [8g^^\	.	.
16dJJ 16B 16G 16D\	.	.	.
8d 8B 8G 8D\	16ggKL] 16dd] 16b] 16g\]	.	.
.	32r	.	.
*Xped	*	*	*
.	32ff#X\KL	.	.
8dL 8A 8G'\	16een 16cc\	.	.
.	32r	.	.
.	32ff#JJ\	.	.
8g 8d 8G'\	16ff# 16b\LL	.	.
.	32rLk	.	.
.	32ff#\	.	.
8dJ 8A 8G'\	16ee 16cc\	.	.
.	32r	.	.
.	32ff#\JJJ	.	.
=126	=126	=126	=126
*ped	*	*	*
8G 8GG/	8ggL 8bn\	.	.
16dLL 16Bn 16G 16D\	[8ggJ [8dd [8b [8g^^\	.	.
16dJJ 16B 16G 16D\	.	.	.
8d 8B 8G\	16ggKL] 16dd] 16b] 16g\]	.	.
.	32r	.	.
*Xped	*	*	*
.	32ffn\KL	.	.
8dL 8A 8G'\	16een 16cc\	.	.
.	32r	.	.
.	32ffJJ\	.	.
8g 8d 8G'\	16gg 16b\LL	.	.
.	32rLk	.	.
.	32ff\	.	.
8dJ 8A 8G'\	16ee 16cc\	.	.
.	32r	.	.
.	32ff\JJJ	.	.
=127	=127	=127	=127
*	*^	*	*
8dL 8G\	16gg/LL	8bn\L	.	.
.	16ffn/	.	.	.
8c\J	16een/	8b-X\	.	.
.	16gg/JJ	.	.	.
8cL 8F\	16ff/LL	8a\	.	.
.	16ee-X/	.	.	.
8B-\J	16dd/	8a-X\	.	.
.	16ff/JJ	.	.	.
8B-L 8E-\	16ee-/LL	8g\	.	.
.	16dd/	.	.	.
8An\J	16cc/	8g\J	.	.
.	16ee-/JJ	.	.	.
!!LO:PB:g=original
=128	=128	=128	=128	=128
8AL 8D\	16dd/LL	8f#X\L	.	.
.	16cc/	.	.	.
8G\J	16bn/	8fn\	.	.
.	16dd/JJ	.	.	.
8GL 8C\	16cc/LL	8en\	.	.
.	16b-X/	.	.	.
8F\J	16a/	8e-X\	.	.
.	16cc/JJ	.	.	.
8B-L 8F 8BB-\	16b-/LL	8d\J	.	.
.	16a/	.	.	.
8c#XJ 8G 8En\	16b-/	8r	.	.
.	16g/JJ	.	.	.
*	*v	*v	*	*
=129	=129	=129	=129
8dL 8B- 8F\	(8f^/L	.	.
(16G\L	16g/L	.	.
16A\JJ	16a/JJ	.	.
8qcn/	8qcc/	.	.
16B-\LL	16b-/LL	.	.
16A\	16a/	.	.
16B-\	16b-/	.	.
16c\JJ	16cc/JJ	.	.
16d\LL	16dd\LL	.	.
16B-\	16b-\	.	.
16d\	16dd\	.	.
16g\JJ)	16gg\JJ)	.	.
=130	=130	=130	=130
8f'\L	16.ff\LL	.	.
.	32ff#X\K	.	.
8F'\J	16.gg 16.ee-\	.	.
.	32aa\JJk	.	.
8r	(4ccc 4aa 4ffn 4ee-^\	.	.
8F 8FF'/	.	.	.
8B- 8F 8BB-'\	8bb- 8ff 8dd\)	.	.
8r	8r	.	.
!!LO:LB:g=original
=131	=131	=131	=131
8.GL 8.GG^/	8.ee-L 8.b- 8.e-^/	.	f
16FK 16FF/	16ddK 16b- 16f/	.	.
8E- 8EE-'/	8cc 8b- 8g'/	.	.
8D 8DD'/	8dd 8b- 8f'/	.	.
8C 8CC'/	8ee- 8b- 8e-'/	.	.
8E-J 8EE-'/	8ggJ 8b- 8g'/	.	.
=132	=132	=132	=132
8D 8DD/	8ff 8b- 8f\	.	.
4B- 4F 4D^^\	(16fffLL 16ff^^\	.	.
.	16ddd\JJ)	.	.
.	(16ddd\LL	.	.
.	16bb-Jk\)	.	.
8B-L 8F 8D\	(16bb-Lk\	.	.
.	16aa\JJ)	.	.
8B- 8F 8D\	(16aa\LL	.	.
.	16ff\Jk)	.	.
8B-J 8F 8D\	(16ffLk\	.	.
.	16dd\JJ)	.	.
=133	=133	=133	=133
8.GL 8.GG^/	8.ee-L 8.b- 8.e-^/	.	f
16FK 16FF/	16ddK 16b- 16f/	.	.
8E- 8EE-'/	8cc 8b- 8g'</	.	.
8D 8DD'/	8dd 8b- 8f'</	.	.
8C 8CC'/	8ee- 8b- 8e-'</	.	.
8E-J 8EE-'/	8ggJ 8b- 8g'</	.	.
!!LO:LB:g=original
=134	=134	=134	=134
8D 8DD/	8ff 8b- 8f\	.	.
4B- 4F 4D^^\	(16fffLL 16ff^^\	.	.
.	16ddd\JJ)	.	.
.	(16ddd\LL	.	.
.	16bb-\Jk)	.	.
8B-L 8F 8D\	(16bb-Lk\	.	.
.	16ff\JJ)	.	.
8B- 8F 8D\	(16ff\LL	.	.
.	16dd\Jk)	.	.
8B-J 8F 8D\	(16ddLk\	.	.
.	16b-\JJ)	.	.
=135	=135	=135	=135
*ped	*	*	*
8D-X 8DD-X/	8ffL 8a-X 8f^^\	.	sff
16d-XLL 16A-X 16F'\	16ffL 16dd-X 16a-'\	.	.
16d-JJ 16A- 16F'\	16ffJJ 16dd- 16a-'\	.	.
*Xped	*	*	*
8d-L 8A- 8F'\	8ffL 8dd- 8a-'\	.	.
8d- 8E- 8D-^^\	8gg 8ee- 8b- 8g^^\	.	.
8c 8E- 8C^^\	8aa-X 8ee- 8a-^^\	.	.
8B-J 8E- 8BB-^^\	8bb-J 8gg 8ee- 8b-^^\	.	.
=136	=136	=136	=136
*ped	*	*	*
8A-X 8AA-X\	8ccc 8aa-X 8ee- 8cc^^\	.	sff
16e-LL 16c 16A-'\	16cccLL 16aa- 16ee- 16cc'\	.	.
16e-JJ 16c 16A-'\	16cccJJ 16aa- 16ee- 16cc'\	.	.
*Xped	*	*	*
8e- 8c 8A-'\	8cccL 8aa- 8ee- 8cc'\	.	.
8A-L 8BB- 8AA-^^/	8ddd 8bb- 8ff 8dd^^\	.	.
8G 8BB- 8GG^^/	8eee- 8bb- 8ee-^^\	.	.
8FJ 8BB- 8FF^^/	8fffJ 8bb- 8ff^^\	.	.
=137	=137	=137	=137
8E-L 8EE-/	8gggL 8bb- 8gg\	.	.
16r	16r	.	.
16CJk 16CC/	16eee-Jk 16ccc 16gg\	.	.
4F 4FF/	4ddd 4bb- 4ff\	.	.
4F 4FF/	4ccc 4aan 4ee-\	.	.
!!LO:LB:g=original
=138	=138	=138	=138
2BB-/	(16bb-LL 16dd\	.	.
.	16ff\	.	.
.	16bb-\	.	.
.	16ddd\JJ	.	.
.	8ff\)	.	.
.	8r	.	.
8.fL 8.F\	8.cccL 8.aa 8.ff\	.	.
16fJk 16F\	16cccJk 16aa 16ff\	.	.
=139	=139	=139	=139
(16fLL 16B-\	(16dddLL 16bb-\	.	.
16F\	16ff\	.	.
16B-\	16bb-\	.	.
16d\JJ	16ddd\JJ	.	.
8f\)	8fff\)	.	.
8r	8r	.	.
4F 4FF;'</	8.ffL 8.ee- 8.cc 8.a;\	.	.
.	16ffJk 16f\	.	.
=140	=140	=140	=140
*ped	*	*	*
8BB- 8BBB-/	8bb-L 8dd 8b-\	.	ff
16dLL 16B- 16F 16D\	[8bb-J [8ff [8b-^^\	.	.
16dJJ 16B- 16F 16D\	.	.	.
8dL 8B- 8F 8D\	16.bb-]LL 16.ff] 16.b-\]	.	.
.	32ff\K	.	.
8d 8B- 8F 8D\	16.dd\	.	.
.	32ff\JJk	.	.
.	8qccc/	.	.
8d 8B- 8F 8D\	16.bb-\LL	.	.
.	32aa\K	.	.
8dJ 8B- 8F 8D\	16.bb-\	.	.
.	32ddd\JJk	.	.
!!LO:LB:g=original
=141	=141	=141	=141
*	*8va	*	*
8d 8B- 8F 8D\	16.fff\LL	.	.
.	32ddd\K	.	.
*clefG2	*	*	*
16fLL 16d 16B-/	16.bb-\	.	.
16fJJ 16d 16B-/	.	.	.
.	32bbb-\JJk	.	.
8fL 8d 8B-/	[4fff\	.	.
8b- 8f 8d/	.	.	.
8dd 8b- 8f/	16.fff\LL]	.	.
.	32ddd\K	.	.
*Xped	*	*	*
8b-J 8f 8d/	16.bb-\	.	.
.	32ggg\JJk	.	.
*clefF4	*	*	*
=142	=142	=142	=142
16.f\LL	16.fff\LL	.	.
32d\K	32ddd\K	.	.
16.B-\	16.bb-\	.	.
32e-\JJk	32eee-\JJk	.	.
16.d\LL	16.ddd/LL	.	.
32B-\K	32bb-/K	.	.
16.F\	16.ff/	.	.
32c\JJk	32ccc/JJk	.	.
16.B-\LL	16.bb-/LL	.	.
32F\K	32ff/K	.	.
16.D\	16.dd/	.	.
32F\JJk	32ff/JJk	.	.
=143	=143	=143	=143
8BB-/	8b-/	.	.
*	*X8va	*	*
8r	8r	.	.
8B- 8F 8D 8BB-\	8bb- 8ff 8dd 8b-\	.	.
8r	8r	.	.
8B- 8F 8D 8BB-\	8ddd 8bb- 8ff 8dd\	.	.
8r	8r	.	.
=144	=144	=144	=144
4B- 4F 4D 4BB-\	4bb- 4ff 4dd 4b-\	.	.
8r	8r	.	.
8B-L 8BB-/	16b-\LL	.	.
.	16b-\JJ	.	.
8D 8DD/	8d/L	.	.
8FJ 8FF/	8f/J	.	.
=145	=145	=145	=145
2.BB- 2.BBB-;</	2.B-;/	.	.
==	==	==	==
*-	*-	*-	*-
!!!system-decoration: {(p1)}
!!!ENC: Berenika Jozajtis
!!!END: 2022-08-21
!!!ENC: Kamil Watkowski
!!!END: 2022-09-26
!!!RDF**kern: > = above
!!!RDF**kern: < = below!!!YEC: Copyright 2022 Narodowy Instytut Fryderyka Chopina (https://polishscores.org)
!!!YEM: License CC-BY-4.0 (https://creativecommons.org/licenses/by/4.0)
!!!YEC: Copyright 2022 Narodowy Instytut Fryderyka Chopina (https://polishscores.org)
